X:290
T:Reel 290
M:4/4
K:Ador
L:1/8
DB,|A,2A,B, G,F,G,B,|A,G,A,B, E2DB,|A,2A,B, G,F,G,B,|DB,G,B, D2DB,|A,2A,B, G,F,G,B,|A,G,A,B, CB,CD|EDEF GFGE|DB,G,B, A,2|B,D|E2GF GFGF|EDCD EFGF|E2EF GFGE|DB,G,B, D2B,D|E2EF GFGF|EFGE A2EF|GABA GFEF|GEDB, A,2|
